X: 149
U:~=!turn!
M:6/8
L:1/8
K:A
"Slow"c/B/ | (AE)C (A,C)E | AEA c(e/d/)(c/B/) | AEC A,(F/E/)D/C/ | B,BB TB2 Tc/B/ |
|: f/g/ | Taec (f/e/)d/c/B/A/ | aec (f/e/)d/c/B/A/ | T(B/A/)B/c/d/e/ f/e/d/c/B/A/ |


